ultimate-post/assets/img/blocks/star-rating.svg

<svg width="24" height="24" viewBox="0 0 24 24" fill="none" xmlns="http://www.w3.org/2000/svg">
<path d="M3 4C3 3.44772 3.44772 3 4 3H20C20.5523 3 21 3.44772 21 4V19C21 19.5523 20.5523 20 20 20H14L12 23L10 20H4C3.44772 20 3 19.5523 3 19V4Z" stroke="#1F66FF" stroke-width="1.5" stroke-linejoin="round"/>
<path d="M12 6.18042L13.6749 9.28439L17 10.0001L14.71 12.6341L15.0902 16.1804L12 14.7044L8.90983 16.1804L9.29 12.6341L7 10.0001L10.3251 9.28439L12 6.18042Z" stroke="#1F66FF" stroke-width="1.5" stroke-linejoin="round"/>
</svg>

<svg xmlns="http://www.w3.org/2000/svg" width="24" height="24" fill="none" stroke="#037fff" stroke-width="1.5" stroke-linejoin="round" xmlns:v="https://vecta.io/nano"><path d="M3 4a1 1 0 0 1 1-1h16a1 1 0 0 1 1 1v15a1 1 0 0 1-1 1h-6l-2 3-2-3H4a1 1 0 0 1-1-1V4z"/><path d="M12 6.18l1.675 3.104L17 10l-2.29 2.634.38 3.546L12 14.704 8.91 16.18l.38-3.546L7 10l3.325-.716L12 6.18z"/></svg>
